X: 10612
T: EDINBRO' NORTH BRIDGE HORNPIPE
C: Composed by W. B. Laybourn
R: hornpipe
B: K\"ohler's Violin Repository, v.1, 1885 p.61 #2
F: http://www.archive.org/details/klersviolinrepos01edin
Z: 2011 John Chambers <jc:trillian.mit.edu>
M: C|
L: 1/8
K: A
|:\
vA2 ((3cB)A B2 ((3dc)B | c2((3ed)c ud2uf2 | (e>a)e>c (B>f)d>B | (A>G)A>c (B>G)E>G |
 A2 ((3cB)A B2 ((3dc)B | c2((3ed)c ud2uf2 | (e>c')a>e (d>B)G>E | B2uA2 uA2z2 :|
|:\
vB2((3cB)A (F>A)^dB  | e2((3eg)e B2((3eg)e | a2((3ag)f g2((3gf)e | f2((3fe)^d e2((3ed)c |
 B2((3cB)A (A>F)^d>B | e2((3eg)e B2((3eg)e | a2((3ag)f g2((3gf)e | f2((3fe)^d e2z2 :|

%%sep 2 1 500

